X:1
T:Angels Watch O'er Thee
T:Angels Watch O'er Thee
T:(Lullaby)
T:Chas. E. Pratt
T:George Cooper
T:by IMSLP - Pubblico dominio
T:by IMSLP - Pubblico dominio
T:by IMSLP - Pubblico dominio
C:Chas. E. Pratt
Z:George Cooper
Z:by IMSLP - Pubblico dominio
%%score 1 { ( 2 3 ) | ( 4 5 ) }
L:1/8
Q:1/4=57
M:3/4
K:Bb
V:1 treble nm="Voice"
V:2 treble nm="Piano"
V:3 treble 
V:4 bass 
V:5 bass 
V:1
"^Andante" z6 | z6 | z6 | z6 |S!p!"_1.\n2." F2 B2 c2 | d4 B2 | B2 A2 G2 | F6 | G2 G2 G2 | F2 B4 | %10
w: ||||An\- gels watch|o'er thee,|slum\- ber my|dear!|Bright be thy|vi\- sions,|
w: ||||An\- gels watch|o'er thee,|keep thee from|care,|Slum\- ber till|morn\- ing,|
!<(! B2 A2 B2!<)! |"^rall."!>(! c6!>)! |"^a tempo"!<(! F2 B2 c2!<)! |!>(! d4 B2!>)! | B2 A2 G2 | %15
w: moth\- er is|near,|Birds of the|wood\- land|sleep in their|
w: dar\- ling, so|fair!|Vi\- sions of|beau\- ty|o\- ver thee|
 F6 | f2 e2 d2 | (dc) (B2 G2) |"^rall." F2 G2 A2 | B4 z2 |!<(! F2 B2 c2!<)! |!>(! (_d3 c) B2!>)! | %22
w: nest,|Soft\- ly the|sun\- _ set _|gold\- en the|west.|Rest thee, love,|rest _ thee,|
w: beam,|Now of yon|Hea\- _ ven _|tran\- quil\- ly|dream.|Rest thee, love,|rest _ thee,|
 A2 c2 =E2 | F6 |!<(! F3 G A2 | (B2 c2) _d2!<)! |!f! _d2 c2 B2 |!f! (f2"^rall." =e2"^dim." _e2) | %28
w: toil now is|past,|sleep in its|fet\- _ ters|binds thee at|last, _ _|
w: wake when the|flow'rs|o\- pen the|pe\- _ tals|bright be thine|hours, _ _|
"^a tempo" d2 B2 c2 | d4 B2 | B2 A2 G2 | F6 | f2 e2 d2 | (dc) (B2 G2) |"^rall." F2 d2 c2 | B4 z2 | %36
w: Stars in yon|Heav\- en|shine o'er the|deep,|An\- gels watch|o'er _ thee _|Calm be thy|sleep!|
w: Then, sweet\- est|blos\- som,|wake to us|here,|An\- gels watch|o'er _ thee, _|Moth\- er is|near!|
 z6 | z6 | z6 | z6!D.S.! |] %40
w: ||||
w: ||||
V:2
 (f2 e2 d2 |!>(! d!>)!c"_dim." B2 G2 |"_rall:" F2 d2!p! c2) | [DB]6 | z (F,[B,D]F,[A,E]F,) | %5
 z (F,[B,D]F,[A,E]F,) | (B2 A2 G2) | ([DF]F,B,DB,F,) | z (B,[EG]B,[EG]B,) | z (B,FGFB,) | %10
!<(! z (C[=EB]C[EB]C)!<)! |!>(! ([_EA]CGB,FA,)!>)! |!<(! ([DF]2 [DB]2 [Ec]2!<)! | %13
!>(! [Fd]4 [DB]2)!>)! |!>(! B2 A2 G2!>)! |!<(! ([DF]F,B,DFB)!<)! |!f! !>!f2 e2 d2 | dc B2 G2 | %18
 (F2 G2"_dim." A2 | [DB]4) z2 | z (F,[B,_D]F,[A,E]F,) | z (F,[_DF]F,[B,D]F,) | z (C[FA]C[B,=E]C) | %23
 ([G,F]CFAFC) | z (C[FA]C[FA]C) |!<(! B2 c2 _d2!<)! |!f! _d2 c2 B2 | %27
!f!!>(! !>![FAe]2 [B=e]2"_dim." [Fc_e]2!>)! |!<(! ([Fd]2 [DB]2 [Ec]2!<)! |!>(! [Fd]4 [DB]2)!>)! | %30
!>(! B2 A2 G2!>)! |!<(! ([DF]F,B,DFB)!<)! |!f! f2 e2 d2 | dc B2 G2 | A2 d2 c2 |!<(! [DB]4 z2!<)! | %36
!f! (!>!f2 e2 d2 |!>(! dc B2 G2)!>)! | (F2 G2"_dim." A2 | [DB]4) z2 |] %40
V:3
 !>!BF AF BF | [DA]2 GD ^CB, | DB, d[EA] c[EA] | x6 | x6 | x6 | GB,FB,EB, | x6 | x6 | x6 | x6 | %11
 _E2 E2 E2 | x6 | x6 | GB,FB,EB, | x6 | BF AF BF | [DA]2 GD ^CB, | DB, [C=E]B, _EC | x6 | x6 | x6 | %22
 x6 | x6 | x6 | B[_DF] c[EF] _d[DF] | _d[=EB] c[EB] B[CE] | x6 | x6 | x6 | GB,FB,EB, | x6 | %32
 BF AF BF | [DA]2 GD ^CB, | DB, d[FB] c[EA] | x6 | BF AF BF | [DA]2 GD ^CB, | DB, [C=E]B, _EC | %39
 x6 |] %40
V:4
!f! (D2 C2 B,2) | (^F,2 G,2) =E,2 | F,2 F,,2 F,2 | (B,2 B,,2) z2 | B,,6 | B,,6 | B,,6 | B,,6 | %8
 E,6- | E,6 | C,6 |"^rall." F,,6 |"^a tempo" B,,6 | B,,6 | B,,6 | B,,6 | (D2 C2 B,2) | %17
 (^F,2 G,2) =E,2 |"^colla voce" F,2 F,,2 F,2 | (B,2 B,,2) z2 | B,,6 | B,,6 | C,6 | F,,6 | %24
 (F,4 _E,2) | (_D,2 C,2 B,,2) | (_G,,4 _G,2) | [F,C]2 [G,C]2 [A,C]2 |"^a tempo" B,,6 | B,,6 | %30
 B,,6 | B,,6 | (D2 C2 B,2) | (^F,2 G,2) =E,2 | F,2 F,,2 F,2 | (B,,A,,B,,D,F,B,) | (D2 C2 B,2) | %37
 (^F,2 G,2) =E,2 |"^rall. e" F,2 F,,2 F,2 | (B,2 B,,2) z2 |] %40
V:5
 x6 | x6 | x6 | x6 | x6 | x6 | x6 | x6 | x6 | x6 | x6 | x6 | B,,F,B,F,A,F, | B,,F,B,F,B,F, | x6 | %15
 x6 | x6 | x6 | x6 | x6 | x6 | x6 | x6 | x6 | x6 | x6 | x6 | x6 | B,,F,B,F,A,F, | B,,F,B,F,B,F, | %30
 x6 | x6 | x6 | x6 | x6 | x6 | x6 | x6 | x6 | x6 |] %40

